src/img/ship.svg

<svg width="263" height="266" viewBox="0 0 263 266" fill="none" xmlns="http://www.w3.org/2000/svg">
<circle cx="3.31118" cy="83.7944" r="2.5" transform="rotate(-24.4738 3.31118 83.7944)" fill="#CDD9E0"/>
<circle cx="259.147" cy="182.732" r="2.5" transform="rotate(-24.4738 259.147 182.732)" fill="#CDD9E0"/>
<path d="M261.227 182.915C261.256 182.984 261.285 183.053 261.198 183.09C261.169 183.265 260.937 183.447 260.648 183.491C259.403 183.462 258.274 183.464 257.117 183.398C256.914 183.405 256.712 183.167 256.741 182.992C256.77 182.817 257.089 182.598 257.291 182.591C258.449 182.658 259.664 182.618 260.822 182.685C261.053 182.747 261.198 182.847 261.227 182.915ZM251.59 182.465C251.619 182.533 251.648 182.602 251.59 182.708C251.474 182.921 251.242 183.103 251.011 183.041C249.853 182.974 248.667 182.839 247.567 182.666C247.336 182.604 247.162 182.435 247.278 182.223C247.394 182.01 247.626 181.828 247.857 181.89C249.044 182.026 250.114 182.13 251.301 182.265C251.416 182.296 251.532 182.327 251.59 182.465ZM242.127 181.207C242.156 181.276 242.185 181.345 242.127 181.451C242.011 181.664 241.751 181.777 241.548 181.783C240.448 181.611 239.32 181.369 238.192 181.127C237.96 181.065 237.873 180.859 237.989 180.646C238.105 180.434 238.366 180.321 238.597 180.383C239.726 180.624 240.825 180.797 241.954 181.039C241.983 181.108 242.099 181.139 242.127 181.207ZM233.013 179.312C233.042 179.381 233.099 179.518 233.012 179.556C232.897 179.769 232.636 179.882 232.404 179.82C231.363 179.54 230.205 179.23 229.164 178.951C228.932 178.889 228.846 178.683 228.962 178.47C229.078 178.257 229.338 178.144 229.57 178.206C230.611 178.486 231.682 178.833 232.81 179.075C232.839 179.144 232.955 179.175 233.013 179.312ZM224.188 176.641C224.217 176.71 224.188 176.885 224.13 176.992C224.014 177.204 223.753 177.317 223.493 177.186C222.422 176.839 221.439 176.453 220.426 175.999C220.195 175.937 220.195 175.693 220.311 175.48C220.427 175.267 220.716 175.223 220.948 175.285C221.932 175.671 223.002 176.019 223.986 176.404C224.13 176.504 224.159 176.573 224.188 176.641ZM215.914 173.326C215.972 173.463 215.914 173.57 215.856 173.676C215.74 173.889 215.45 173.933 215.219 173.871C214.206 173.417 213.281 172.925 212.268 172.47C212.037 172.408 212.037 172.165 212.153 171.952C212.269 171.739 212.558 171.695 212.79 171.757C213.715 172.249 214.728 172.703 215.625 173.127C215.827 173.12 215.885 173.257 215.914 173.326ZM208.132 169.229C208.19 169.366 208.132 169.472 208.074 169.579C207.929 169.723 207.669 169.836 207.408 169.705C206.483 169.213 205.615 168.615 204.66 168.054C204.516 167.954 204.516 167.711 204.632 167.498C204.777 167.354 205.066 167.31 205.298 167.372C206.165 167.97 207.091 168.462 208.017 168.954C208.017 169.198 208.103 169.16 208.132 169.229ZM200.843 164.593C200.901 164.73 200.872 164.905 200.727 165.049C200.582 165.193 200.293 165.237 200.061 165.175C199.194 164.577 198.413 163.941 197.545 163.343C197.372 163.174 197.401 162.999 197.604 162.749C197.835 162.567 198.038 162.561 198.298 162.691C199.079 163.327 199.947 163.926 200.728 164.562C200.814 164.524 200.843 164.593 200.843 164.593Z" fill="#CDD9E0"/>
<path d="M89.534 84.2009C89.6687 84.0778 89.9263 84.0503 90.1166 84.0843C91.1791 84.5681 92.1743 85.1136 93.2369 85.5974C93.4213 85.7407 93.4768 85.8977 93.3363 86.13C93.1957 86.3623 92.9381 86.3898 92.6863 86.3081C91.6911 85.7627 90.6286 85.2788 89.566 84.7949C89.3758 84.761 89.3261 84.4947 89.534 84.2009C89.4667 84.2624 89.4667 84.2624 89.534 84.2009ZM97.9434 88.5705C98.0781 88.4474 98.4031 88.3584 98.526 88.4539C99.5212 88.9993 100.516 89.5447 101.512 90.0901C101.696 90.2333 101.684 90.4518 101.611 90.6226C101.409 90.8072 101.151 90.8347 100.961 90.8007C99.9659 90.2553 98.9707 89.7099 97.9755 89.1645C97.7911 89.0213 97.7414 88.755 97.9434 88.5705ZM106.083 93.1861C106.286 93.0016 106.543 92.974 106.666 93.0695C107.661 93.6149 108.589 94.2219 109.517 94.8288C109.701 94.972 109.69 95.1905 109.488 95.3751C109.285 95.5596 109.028 95.5872 108.843 95.444C107.916 94.837 106.92 94.2916 105.993 93.6847C105.931 93.637 105.881 93.3707 106.083 93.1861C106.016 93.2477 106.083 93.1861 106.083 93.1861ZM113.887 98.1094C114.089 97.9249 114.346 97.8973 114.531 98.0405C115.52 98.6952 116.448 99.3021 117.314 99.8613C117.499 100.005 117.487 100.223 117.285 100.408C117.083 100.592 116.825 100.62 116.641 100.476C115.713 99.8696 114.785 99.2626 113.857 98.6557C113.734 98.5602 113.685 98.294 113.887 98.1094ZM121.549 103.265C121.752 103.08 122.009 103.053 122.194 103.196C123.183 103.851 124.043 104.519 124.971 105.126C125.156 105.269 125.144 105.488 124.942 105.672C124.74 105.857 124.482 105.885 124.298 105.741C123.499 105.121 122.571 104.514 121.582 103.859C121.336 103.668 121.347 103.45 121.549 103.265Z" fill="#CDD9E0"/>
<path d="M128.724 107.835C128.872 107.722 129.128 107.717 129.309 107.768C130.284 108.356 131.185 109 132.159 109.588C132.32 109.751 132.354 109.916 132.185 110.14C132.017 110.363 131.761 110.368 131.526 110.263C130.625 109.618 129.651 109.03 128.676 108.443C128.494 108.391 128.481 108.115 128.724 107.835C128.65 107.891 128.65 107.891 128.724 107.835ZM136.366 113.037C136.514 112.924 136.844 112.862 136.951 112.97C137.852 113.615 138.753 114.259 139.653 114.904C139.815 115.066 139.774 115.288 139.68 115.455C139.457 115.625 139.202 115.63 139.02 115.578C138.119 114.934 137.219 114.289 136.318 113.645C136.157 113.483 136.144 113.207 136.366 113.037ZM143.712 118.466C143.934 118.296 144.19 118.291 144.297 118.399C145.198 119.044 146.025 119.745 146.851 120.446C147.012 120.608 146.972 120.83 146.75 121C146.527 121.169 146.272 121.174 146.11 121.012C145.284 120.311 144.383 119.667 143.557 118.965C143.503 118.911 143.49 118.636 143.712 118.466C143.638 118.523 143.712 118.466 143.712 118.466ZM150.688 124.178C150.91 124.008 151.166 124.003 151.327 124.165C152.207 124.921 153.034 125.622 153.806 126.269C153.968 126.431 153.927 126.652 153.705 126.822C153.483 126.992 153.227 126.997 153.066 126.835C152.239 126.134 151.413 125.433 150.586 124.732C150.479 124.623 150.465 124.348 150.688 124.178ZM157.495 130.114C157.717 129.944 157.973 129.939 158.134 130.101C159.014 130.856 159.767 131.614 160.593 132.315C160.754 132.478 160.714 132.699 160.492 132.869C160.269 133.039 160.014 133.044 159.852 132.881C159.154 132.178 158.327 131.477 157.447 130.722C157.232 130.505 157.273 130.284 157.495 130.114Z" fill="#CDD9E0"/>
<path d="M163.976 135.004C164.127 134.894 164.381 134.896 164.56 134.953C165.507 135.569 166.379 136.241 167.326 136.858C167.481 137.026 167.508 137.192 167.332 137.413C167.157 137.633 166.902 137.632 166.672 137.519C165.801 136.847 164.853 136.23 163.906 135.614C163.727 135.557 163.724 135.279 163.976 135.004C163.9 135.059 163.9 135.059 163.976 135.004ZM171.382 140.437C171.533 140.327 171.863 140.274 171.966 140.386C172.838 141.057 173.71 141.729 174.581 142.401C174.736 142.569 174.687 142.79 174.587 142.956C174.36 143.121 174.106 143.119 173.927 143.062C173.056 142.39 172.184 141.718 171.312 141.047C171.158 140.879 171.155 140.602 171.382 140.437ZM178.486 146.09C178.713 145.925 178.967 145.927 179.07 146.038C179.941 146.71 180.737 147.437 181.533 148.164C181.688 148.331 181.639 148.553 181.412 148.717C181.185 148.882 180.931 148.88 180.777 148.713C179.981 147.986 179.109 147.314 178.313 146.588C178.261 146.532 178.259 146.254 178.486 146.09ZM185.211 152.017C185.438 151.852 185.692 151.854 185.846 152.022C186.694 152.804 187.49 153.531 188.234 154.202C188.389 154.369 188.34 154.591 188.113 154.756C187.886 154.92 187.632 154.919 187.477 154.751C186.681 154.024 185.885 153.298 185.089 152.571C184.987 152.459 184.984 152.182 185.211 152.017ZM191.76 158.165C191.987 158 192.241 158.002 192.396 158.17C193.243 158.952 193.964 159.734 194.76 160.461C194.914 160.628 194.865 160.85 194.638 161.014C194.411 161.179 194.157 161.177 194.003 161.01C193.334 160.284 192.538 159.557 191.69 158.775C191.485 158.551 191.533 158.33 191.76 158.165Z" fill="#CDD9E0"/>
<path d="M10.5455 80.8703L10.6317 80.8311C11.2104 80.7314 11.8445 80.5246 12.4232 80.4249C12.7126 80.3751 12.8605 80.4715 12.8669 80.7141C12.8733 80.9567 12.7319 81.103 12.4425 81.1529C11.8637 81.2526 11.2297 81.4593 10.6509 81.559C10.3616 81.6089 10.2137 81.5125 10.1211 81.3091C10.1764 81.2021 10.287 80.988 10.5455 80.8703Z" fill="#CDD9E0"/>
<path d="M19.2204 79.1319C19.3065 79.0927 19.3065 79.0927 19.3927 79.0535C20.7534 78.8434 21.9971 78.6048 23.3578 78.3947C23.6472 78.3448 23.8259 78.509 23.8015 78.6839C23.8079 78.9265 23.5803 79.112 23.3771 79.1226C22.1025 79.2935 20.7418 79.5036 19.4981 79.7422C19.2088 79.7921 19.03 79.6279 19.0544 79.4531C18.9374 79.4245 19.048 79.2104 19.2204 79.1319ZM29.9954 77.6654C30.0816 77.6262 30.0816 77.6262 30.1677 77.5869C31.4731 77.4839 32.7477 77.313 34.0531 77.21C34.3424 77.1601 34.5212 77.3243 34.4415 77.6062C34.417 77.781 34.2202 78.0343 33.9 78.0164C32.5946 78.1194 31.2892 78.2225 30.0147 78.3933C29.7253 78.4432 29.5465 78.279 29.5401 78.0363C29.6816 77.8901 29.8231 77.7438 29.9954 77.6654ZM40.6727 76.8982C40.7588 76.8589 40.845 76.8197 40.8759 76.8875C42.2122 76.8523 43.4314 76.7884 44.7676 76.7532C44.9708 76.7426 45.1496 76.9068 45.156 77.1494C45.1316 77.3242 44.9039 77.5097 44.6146 77.5596C43.3645 77.5556 42.0282 77.5908 40.809 77.6547C40.6058 77.6653 40.427 77.5011 40.4206 77.2585C40.3589 77.1228 40.5003 76.9766 40.6727 76.8982ZM51.2831 76.8981C51.3692 76.8588 51.4554 76.8196 51.5724 76.8482C52.8534 76.92 54.1035 76.924 55.3844 76.9958C55.6185 77.0529 55.7973 77.2171 55.6867 77.4312C55.576 77.6453 55.3484 77.8307 55.1143 77.7736C53.8334 77.7018 52.5524 77.63 51.3023 77.626C51.0991 77.6366 50.8895 77.4046 50.9139 77.2298C51.0554 77.0835 51.1107 76.9765 51.2831 76.8981ZM61.7095 77.6366C61.7957 77.5973 61.8818 77.5581 61.9989 77.5867C63.2245 77.7655 64.5055 77.8373 65.7311 78.0161C65.9652 78.0733 66.144 78.2375 66.0333 78.4515C65.9227 78.6656 65.6642 78.7833 65.461 78.7939C64.2354 78.6151 63.0097 78.4363 61.7287 78.3645C61.4947 78.3073 61.3159 78.1431 61.4265 77.9291C61.451 77.7542 61.5372 77.715 61.7095 77.6366ZM71.8349 79.085C71.9211 79.0458 72.0073 79.0066 72.1243 79.0352C73.35 79.214 74.5203 79.4998 75.7768 79.7465C76.0109 79.8036 76.1035 80.0071 75.9929 80.2211C75.8823 80.4352 75.6238 80.5528 75.3897 80.4957C74.2194 80.2098 72.9937 80.031 71.7372 79.7844C71.5031 79.7272 71.4105 79.5238 71.5211 79.3097C71.5764 79.2027 71.7488 79.1243 71.8349 79.085Z" fill="#CDD9E0"/>
<path d="M81.6596 81.2436C81.7457 81.2043 81.9489 81.1937 82.066 81.2223C82.6512 81.3652 83.1502 81.5473 83.7353 81.6903C83.9694 81.7474 84.062 81.9509 83.9514 82.1649C83.8408 82.379 83.5822 82.4966 83.3482 82.4395C82.763 82.2966 82.264 82.1144 81.7097 82.0393C81.4756 81.9821 81.383 81.7787 81.4936 81.5646C81.4319 81.429 81.5734 81.2828 81.6596 81.2436Z" fill="#CDD9E0"/>
</svg>

<svg width="263" height="266" fill="none" xmlns="http://www.w3.org/2000/svg"><circle cx="3.311" cy="83.794" r="2.5" transform="rotate(-24.474 3.311 83.794)" fill="#CDD9E0"/><circle cx="259.147" cy="182.732" r="2.5" transform="rotate(-24.474 259.147 182.732)" fill="#CDD9E0"/><path d="M261.227 182.915c.029.069.058.138-.029.175-.029.175-.261.357-.55.401-1.245-.029-2.374-.027-3.531-.093-.203.007-.405-.231-.376-.406.029-.175.348-.394.55-.401 1.158.067 2.373.027 3.531.094.231.062.376.162.405.23Zm-9.637-.45c.029.068.058.137 0 .243-.116.213-.348.395-.579.333a35.847 35.847 0 0 1-3.444-.375c-.231-.062-.405-.231-.289-.443.116-.213.348-.395.579-.333 1.187.136 2.257.24 3.444.375.115.031.231.062.289.2Zm-9.463-1.258c.029.069.058.138 0 .244-.116.213-.376.326-.579.332-1.1-.172-2.228-.414-3.356-.656-.232-.062-.319-.268-.203-.481a.548.548 0 0 1 .608-.263c1.129.241 2.228.414 3.357.656.029.069.145.1.173.168Zm-9.114-1.895c.029.069.086.206-.001.244a.546.546 0 0 1-.608.264l-3.24-.869c-.232-.062-.318-.268-.202-.481a.547.547 0 0 1 .608-.264c1.041.28 2.112.627 3.24.869.029.069.145.1.203.237Zm-8.825-2.671c.029.069 0 .244-.058.351a.468.468 0 0 1-.637.194 29.886 29.886 0 0 1-3.067-1.187c-.231-.062-.231-.306-.115-.519.116-.213.405-.257.637-.195.984.386 2.054.734 3.038 1.119.144.1.173.169.202.237Zm-8.274-3.315c.058.137 0 .244-.058.35-.116.213-.406.257-.637.195-1.013-.454-1.938-.946-2.951-1.401-.231-.062-.231-.305-.115-.518.116-.213.405-.257.637-.195.925.492 1.938.946 2.835 1.37.202-.007.26.13.289.199Zm-7.782-4.097c.058.137 0 .243-.058.35-.145.144-.405.257-.666.126-.925-.492-1.793-1.09-2.748-1.651-.144-.1-.144-.343-.028-.556.145-.144.434-.188.666-.126.867.598 1.793 1.09 2.719 1.582 0 .244.086.206.115.275Zm-7.289-4.636c.058.137.029.312-.116.456-.145.144-.434.188-.666.126-.867-.598-1.648-1.234-2.516-1.832-.173-.169-.144-.344.059-.594.231-.182.434-.188.694-.058.781.636 1.649 1.235 2.43 1.871.086-.038.115.031.115.031ZM89.534 84.2c.135-.122.392-.15.583-.116 1.062.484 2.057 1.03 3.12 1.513.184.144.24.3.1.533-.141.232-.399.26-.65.178-.996-.545-2.058-1.03-3.121-1.513-.19-.034-.24-.3-.032-.594-.067.061-.067.061 0 0Zm8.41 4.37c.134-.123.46-.212.582-.116l2.986 1.636c.184.143.172.362.099.533a.764.764 0 0 1-.65.178l-2.986-1.636c-.184-.144-.234-.41-.032-.595Zm8.139 4.616c.203-.184.46-.212.583-.117.995.546 1.923 1.153 2.851 1.76.184.143.173.362-.029.546-.203.185-.46.212-.645.069-.927-.607-1.923-1.152-2.85-1.76-.062-.047-.112-.313.09-.498-.067.062 0 0 0 0Zm7.804 4.923c.202-.184.459-.212.644-.069.989.655 1.917 1.262 2.783 1.821.185.144.173.362-.029.547-.202.184-.46.212-.644.068l-2.784-1.82c-.123-.096-.172-.362.03-.547Zm7.662 5.156c.203-.185.46-.212.645-.069.989.655 1.849 1.323 2.777 1.93.185.143.173.362-.029.546-.202.185-.46.213-.644.069-.799-.62-1.727-1.227-2.716-1.882-.246-.191-.235-.409-.033-.594Zm7.175 4.57c.148-.113.404-.118.585-.067.975.588 1.876 1.232 2.85 1.82.161.163.195.328.026.552-.168.223-.424.228-.659.123-.901-.645-1.875-1.233-2.85-1.82-.182-.052-.195-.328.048-.608-.074.056-.074.056 0 0Zm7.642 5.202c.148-.113.478-.175.585-.067l2.702 1.934c.162.162.121.384.027.551a.747.747 0 0 1-.66.123l-2.702-1.933a.396.396 0 0 1 .048-.608Zm7.346 5.429c.222-.17.478-.175.585-.067.901.645 1.728 1.346 2.554 2.047.161.162.121.384-.101.554-.223.169-.478.174-.64.012-.826-.701-1.727-1.345-2.553-2.047-.054-.054-.067-.329.155-.499-.074.057 0 0 0 0Zm6.976 5.712c.222-.17.478-.175.639-.013.88.756 1.707 1.457 2.479 2.104.162.162.121.383-.101.553-.222.17-.478.175-.639.013l-2.48-2.103c-.107-.109-.121-.384.102-.554Zm6.807 5.936c.222-.17.478-.175.639-.013.88.755 1.633 1.513 2.459 2.214.161.163.121.384-.101.554-.223.17-.478.175-.64.012-.698-.703-1.525-1.404-2.405-2.159-.215-.217-.174-.438.048-.608Zm6.481 4.89c.151-.11.405-.108.584-.051.947.616 1.819 1.288 2.766 1.905.155.168.182.334.006.555-.175.22-.43.219-.66.106-.871-.672-1.819-1.289-2.766-1.905-.179-.057-.182-.335.07-.61-.076.055-.076.055 0 0Zm7.406 5.433c.151-.11.481-.163.584-.051l2.615 2.015c.155.168.106.389.006.555a.738.738 0 0 1-.66.106 2590.27 2590.27 0 0 0-2.615-2.015.402.402 0 0 1 .07-.61Zm7.104 5.653c.227-.165.481-.163.584-.052.871.672 1.667 1.399 2.463 2.126.155.167.106.389-.121.553-.227.165-.481.163-.635-.004-.796-.727-1.668-1.399-2.464-2.125-.052-.056-.054-.334.173-.498Zm6.725 5.927c.227-.165.481-.163.635.005.848.782 1.644 1.509 2.388 2.18.155.167.106.389-.121.554-.227.164-.481.163-.636-.005l-2.388-2.18c-.102-.112-.105-.389.122-.554Zm6.549 6.148c.227-.165.481-.163.636.005.847.782 1.568 1.564 2.364 2.291.154.167.105.389-.122.553-.227.165-.481.163-.635-.004-.669-.726-1.465-1.453-2.313-2.235-.205-.224-.157-.445.07-.61ZM10.546 80.87l.086-.039c.578-.1 1.213-.306 1.791-.406.29-.05.438.047.444.29.006.242-.135.388-.425.438-.578.1-1.212.306-1.791.406-.29.05-.437-.046-.53-.25a.893.893 0 0 1 .425-.439Zm8.674-1.738.173-.079c1.36-.21 2.604-.448 3.965-.658.29-.05.468.114.444.289.006.243-.222.428-.425.439-1.274.17-2.635.38-3.879.62-.29.05-.468-.115-.444-.29-.117-.029-.006-.243.166-.321Zm10.775-1.467.173-.078c1.305-.103 2.58-.274 3.885-.377.29-.05.468.114.389.396a.52.52 0 0 1-.542.41c-1.305.103-2.61.206-3.885.377-.29.05-.468-.114-.475-.357.142-.146.283-.292.455-.37Zm10.678-.767c.086-.04.172-.078.203-.01 1.336-.036 2.555-.1 3.892-.135.203-.01.382.154.388.396-.024.175-.252.36-.541.41a70.375 70.375 0 0 0-3.806.096c-.203.01-.382-.154-.388-.397-.062-.135.08-.281.252-.36Zm10.61 0c.086-.04.172-.078.29-.05 1.28.072 2.53.076 3.811.148.234.057.413.221.303.435-.111.214-.339.4-.573.343-1.28-.072-2.562-.144-3.812-.148-.203.01-.413-.221-.388-.396.141-.147.197-.254.37-.332Zm10.426.739c.087-.04.173-.079.29-.05 1.225.178 2.506.25 3.732.43.234.056.413.22.302.434-.11.215-.369.332-.572.343-1.226-.179-2.451-.358-3.732-.43-.234-.057-.413-.22-.303-.435.025-.175.111-.214.283-.292Zm10.126 1.448c.086-.04.172-.078.29-.05 1.225.179 2.395.465 3.652.712.234.057.326.26.216.474a.547.547 0 0 1-.603.275c-1.17-.286-2.396-.465-3.653-.712-.234-.057-.326-.26-.216-.474.055-.107.228-.186.314-.225Zm9.825 2.159a.803.803 0 0 1 .406-.022c.585.143 1.084.325 1.67.468.233.057.326.26.215.475a.547.547 0 0 1-.603.274c-.585-.142-1.084-.325-1.638-.4-.234-.057-.327-.26-.216-.474-.062-.136.08-.282.166-.321Z" fill="#CDD9E0"/></svg>
